X:1
T:Title
%%score { 1 | 2 }
L:1/8
Q:1/4=100
M:4/4
K:Bb
V:1 treble nm="Grand Piano"
V:2 bass 
V:1
 [Fd]2 [Fd]>[=E_d] [F=d] [DB]2 [DF] | [DF]2 [CE]>D E4 | c2 c>=B c F2 F | G2 F>E D4 | %4
w: Charles~Edward~Prior * * * * *||||
 [Fd]2 [Fd]>[=E_d] [F=d] [DB]2 [DF] | [DF]2 E>D G3 G | F2 [DFB]>[DFB] BAGA | [DB]6 z2 | %8
w: ||||
 c2 F>F F c2 _d | [Fd]2 [FB]>c d4 | [Ge]2 G>G G2 [Ge]>[Ge] | [Fd]>[Fd] [Fd]2 [Fc]4 | %12
w: ||||
 [Fd]2 [Fd]>[=E_d] [F=d] [DB]2 [DF] | [DF]2 E>D G3 G | F2 [DFB]>[DFB] BAGA |[M:8/4] [DB]8 z8 |] %16
w: ||||
V:2
 [B,,B,]2 [B,,B,]>[B,,B,] [B,,B,] [B,,F,]2 [B,,B,] | [B,,B,]2 [B,,F,]>[B,,F,B,] [F,A,C]4 | %2
 [F,A,E]2 [F,A,E]>[F,A,D] [F,A,E] [F,A,E]2 [F,A,E] | [F,A,E]2 [F,B,D]>[F,C] [B,,F,B,]4 | %4
 [B,,B,]2 [B,,B,]>[B,,B,] [B,,B,] [B,,F,]2 [B,,B,] | [B,,B,]2 [C,F,A,]>[C,F,B,] [E,B,]3 [E,B,E] | %6
 [D,B,]2 B,,>B,, [F,CE]2 [F,CE][F,CE] | [B,,B,]6 z2 | %8
 [F,A,E]2 [F,A,E]>[F,A,E] [F,A,E] [F,A,E]2 [F,A,=E] | [B,,B,]2 [D,B,]>[K:treble][F,A,F] [B,F]4 | %10
 [E,B,]2 [E,B,E]>[E,B,E] [E,B,E]2 [E,B,]>[E,B,] | [B,,B,]>[B,,B,] [B,,B,]2 [F,A,]4 | %12
 [B,,B,]2 [B,,B,]>[B,,B,] [B,,B,] [B,,F,]2 [B,,B,] | [B,,B,]2 [C,F,A,]>[C,F,B,] [E,B,]3 [E,B,E] | %14
 [D,B,]2 B,,>B,, [F,CE]2 [F,CE][F,CE] |[M:8/4] [B,,B,]8 z8 |] %16

